!!!!SEGMENT: pl-wtm--1127-3625--001-001_rozycki-ludomir--4-impromptus-op-6-1.krn
!!!cenid: 19xx:144
!!!COM: Różycki, Ludomir
!!!COM-rismID: pe50045573
!!!CDT: 1883-1953
!!!CNT: Polish
!!!GTL: 4 Impromptus op. 6
!!!OTL: 1.
!!!OMV: 001
!!!PDT: 1924
!!!AGN: Secular: Impromptu
!!!YEC: Copyright 2022 Narodowy Instytut Fryderyka Chopina (https://polishscores.org)
!!!YEM: License CC-BY-4.0 (https://creativecommons.org/licenses/by/4.0)
!!!SMS-siglum: PL-Wtm
!!!SMS-shelfmark: 1127 3625
!!!SMS-variant:
!!!SMS-altvar:
!!!SMS-shelfwork: 001-001 G
!!!NIFC-rismSourceID: 1001192259
!!!NIFC-rismChildID: 1001192259
!!!NIFC-islandoraID: pl-wtm:82111
!!!URL-pdf-islandora: https://repozytorium.nifc.pl/islandora/object/pl-wtm%3A82111/datastream/PDF/view
!!!URL-scan: https://polish.musicsources.pl/pl/lokalizacje/galeria/druki-muzyczne/18461/3 @EN{Scan on Polish Music Sources Website} @PL{Skany w portalu Dziedzictwo Muzyki Polskiej w otwartym dostępie}
!!!IIIF:
!!!ONB-nifc:
!!!OMD: Andante, espressivo.
!!!AIN: 1 piano
!!!key: C
**kern	**fing	**kern	**fing	**dynam
*part1	*part1	*part1	*part1	*part1
*staff2	*staff2	*staff1	*staff1	*
*ICklav	*	*ICklav	*	*
*Ipiano	*	*Ipiano	*	*
*I"[PIANO]	*	*I"[PIANO]	*	*
*clefF4	*	*clefG2	*	*
*k[]	*	*k[]	*	*
*C:	*	*C:	*	*
*M4/4	*	*M4/4	*	*
*met(c)	*	*met(c)	*	*
=1	=1	=1	=1	=1
*ped	*	*	*	*
!	!	!LO:TX:b:i:t=dolce	!	!
!	!	!LO:TX:a:t=[4]=76.	!	!
4GG\ 4D 4F 4B	.	4f\ 4dd 4aa	.	p
*	*below	*	*	*
!LO:TUP:a	!	!	!	!
(12f\L	1	(8a/	1	<
12d\	2	.	.	.
.	.	4ee\	5	.
*Xped	*	*	*	*
12G\J	5	.	.	[
*ped	*	*	*	*
4GG\) 4D 4F 4B	.	.	.	.
.	.	4dd\	.	>
!LO:TUP:a	!	!	!	!
(12f\L	.	.	.	.
12d\	.	.	.	.
.	.	[8b\	.	]
*Xped	*	*	*	*
12G\J	.	.	.	.
=2	=2	=2	=2	=2
*ped	*	*	*	*
4GG\) 4C 4E 4A	.	4b\]	.	.
*Xtuplet	*	*	*	*
(12e\L	1	4.a/)	.	>
12c\	2	.	.	.
*Xped	*	*	*	*
12G\J	.	.	.	]
*ped	*	*	*	*
4GG/) 4C 4E 4G	.	.	.	.
.	.	(8g/	1	<
!	!	!LO:TUP:a	!	!
(12g\L	1	12cc\L	2	.
12e\	.	12dd\	.	.
*Xped	*	*	*	*
12G\J)	.	12ee\J	.	[[
=3	=3	=3	=3	=3
*	*	*^	*	*
*ped	*	*	*	*	*
(4d\ 4f	.	4.gg/	(4cc\	2 5	.
12d\L	1	.	4b\)	.	.
12F\	2	.	.	.	.
.	.	[8aa/)	.	5	.
*Xped	*	*	*	*	*
12GG\J)	.	.	.	.	.
*ped	*	*	*	*	*
(4c\ 4e	.	8aa/L]	(4b\	.	.
.	.	(8gg/J	.	5	.
12c\L	1	12ee:/L	4a:\)	4	.
12E\	2	12dd/	.	.	.
*Xped	*	*	*	*	*
12GG\J)	.	12cc/J	.	.	.
!!LO:LB:g=original
=4	=4	=4	=4	=4	=4
*	*	*	*^	*	*
*ped	*	*	*	*	*	*
(4D\ 4c	.	(4a/ 4ff	2f\	4ryy	.	.
12B\L	1	4b/))	.	4b\	3	.
12F\	2	.	.	.	.	.
*Xped	*	*	*	*	*	*
12GG\J)	.	.	.	.	.	.
*ped	*	*	*	*	*	*
(4C\ 4B	.	(4g/ 4ee	2e\	4ryy	.	.
12A\L	1	4a/)	.	4a\	3	.
12E\	2	.	.	.	.	.
*Xped	*	*	*	*	*	*
12GG\J)	.	.	.	.	.	.
*	*	*	*v	*v	*	*
=5	=5	=5	=5	=5	=5
*ped	*	*	*	*	*
(4GG\ 4D 4A	.	(4.dd/	(2f\	2 5	.
12f\L	1	.	.	.	.
12d\	.	.	.	.	.
.	.	8b/	.	4	.
*Xped	*	*	*	*	*
12G\J)	.	.	.	.	.
*ped	*	*	*	*	*
(4GG/ 4E 4G	.	4cc/	2c\)	.	.
12g\L	.	4a/)	.	3	.
12e-X\	.	.	.	.	.
*Xped	*	*	*	*	*
12G\J)	.	.	.	.	.
=6	=6	=6	=6	=6	=6
*ped	*	*	*	*	*
(4GG\ 4D 4A-X	.	(4dd/	(2f\	2 5	.
12f\L	.	4b/	.	4	.
12d\	.	.	.	.	.
*Xped	*	*	*	*	*
12G\J)	.	.	.	.	.
*ped	*	*	*	*	*
(4GG\ 4C 4A-X	.	4cc/	2e-X\)	1 5	.
12f#X\L	1	4an/)	.	3	.
12e-X\	.	.	.	.	.
*Xped	*	*	*	*	*
12G\J)	.	.	.	.	.
!!LO:LB:g=original
=7	=7	=7	=7	=7	=7
*ped	*	*	*	*	*
(4GG:\ 4C: 4E: 4B-X:	.	4.b-X/	4d\	4	.
12b-X\L	1	.	2.ryy	.	.
!	!	!	!	!	!LO:DY:t=più f
12e\	2	.	.	.	f
.	.	(>4a/	.	2	.
12c\J)	4	.	.	.	.
(4CC/	.	.	.	.	.
.	.	4g/	.	.	.
!	!	!	!	!	!LO:HP:t=crescendo poco a poco_:ext=s:ext=ud
12b-\L	.	.	.	.	<
12e\	.	.	.	.	.
.	.	8dd/	.	3	.
12c\J)	.	.	.	.	.
=8	=8	=8	=8	=8	=8
*ped	*	*	*	*	*
(4GG:\ 4C: 4E: 4B-X:	.	4.r	4cc~\)	.	.
12b-X\L	.	.	4bn~\	.	.
12e\	.	.	.	.	.
.	.	4aa/	.	5	.
12c\J)	.	.	.	.	.
(4CC/	.	.	4b-X~\	.	.
.	.	4gg/	.	3	.
12b-\L	.	.	4a~\	.	.
12e\	.	.	.	.	.
.	.	8ddd/	.	.	.
12c\J)	.	.	.	.	[[
=9	=9	=9	=9	=9	=9
(4GG\ 4C 4E 4B-X	.	4.ccc:/	4g~:\	.	.
12b-X\L	.	.	2.ryy	.	.
12e\	.	.	.	.	.
.	.	[8dd\ [8ddd	.	.	<
12c\J)	.	.	.	.	.
(4CC/	.	8dd\L] 8ddd]	.	.	.
.	.	(8ee\ 8eee	.	.	.
12b-\L	.	8ff\ 8fff	.	.	.
12e\	.	.	.	.	.
.	.	8gg\J 8ggg	.	.	[
12c\J)	.	.	.	.	.
!!LO:LB:g=original
=10	=10	=10	=10	=10	=10
*^	*	*	*	*	*
*ped	*	*	*	*	*	*
!	!	!	!LO:N:vis=2	!	!	!
!	!	!	!LO:TX:b:i:t=marcato	!	!	!LO:DY:rj
4FFF/ 4FF	4ryy	.	4aa-X\) 4ccc-X 4eee-X 4aaa-X	2ryy	.	f
!	!	!	!LO:TUP:b	!	!	!
6E-X^/	12E-\L	3	6e-X^/	.	1	.
.	12C-X\	5	.	.	.	.
12B-X^/	12B-\J	1	12b-X^/	.	3	.
4A-X^/	12A-\L	2	8raa	8a-X^/	.	.
.	12E-\	4	.	.	.	.
.	.	.	(8g\L 8gg	4.ryy	.	<
.	12C-\J	.	.	.	.	.
4F/ 4f	12F\L	.	8a-\ 8aa-X	.	.	.
.	12C-\	2	.	.	.	.
.	.	.	8b-X\J 8bb-X	.	.	.
.	12FF\J	.	.	.	.	.
*v	*v	*	*	*	*	*
*	*	*v	*v	*	*
=11	=11	=11	=11	=11
*ped	*	*	*	*
4FFF#X/ 4FF#X	.	2bn\) 2dd#X 2aan 2bbn	.	[
*tuplet	*	*	*	*
!LO:TUP:b	!	!	!	!
(28FF#/LL	4	.	.	.
28GG#X/	.	.	.	.
28AA/	.	.	.	.
28BB/	.	.	.	.
28C#X/	3	.	.	.
28D#X/	.	.	.	.
28E/JJ	.	.	.	.
!LO:TUP:a	!	!	!	!
40F#X\LLL	4	8r	.	.
40G#X\	.	.	.	.
40A\	.	.	.	.
40B\	.	.	.	.
40c#X\	3	.	.	.
40d#X\	.	(8a#X\L 8aa#X	4	.
40e\	.	.	.	.
40f#X\	.	.	.	.
40g#X\	.	.	.	.
40a\JJJ)	.	.	.	.
4r	.	8a#\ 8aa#	.	.
*Xped	*	*	*	*
.	.	8b\J 8bb	.	.
!!LO:LB:g=original
=12	=12	=12	=12	=12
*^	*	*	*	*
*ped	*	*	*	*	*
!	!	!	!LO:N:vis=2	!	!
4AAA/ 4AA	4ryy	.	4cc\) 4ee-X 4gg 4ccc	.	.
*Xtuplet	*	*	*	*	*
!	!	!	!LO:TUP:b	!	!
6G^/	12G\L	3	6g^>/	1	.
.	12E-X\	5	.	.	.
12d^/	12d\J	1	12dd^>/	3	.
4c^/	12c\L	2	8cc^>/	.	.
.	12G\	4	.	.	.
.	.	.	(8b\L 8bb	.	<
.	12E-\J	5	.	.	.
4A/ 4a	12A\L	.	8cc\ 8ccc	.	.
.	12E-\	2	.	.	.
.	.	.	8dd\J 8ddd	.	[[
*Xped	*	*	*	*	*
.	12AA\J	.	.	.	.
*v	*v	*	*	*	*
=13	=13	=13	=13	=13
*ped	*	*	*	*
4BBB-X/ 4BB-X	.	2ee-X\) 2gg 2ddd-X 2eee-X	.	.
*tuplet	*	*	*	*
!LO:TUP:a	!	!	!	!
(28D-X\LL	4	.	.	.
28E-X\	.	.	.	.
28F\	.	.	.	.
28G\	.	.	.	.
28A-X\	3	.	.	.
28B-X\	.	.	.	.
28c\JJ	.	.	.	.
*clefG2	*	*	*	*
32d-X/LLL	4	8r	.	.
32e-X/	.	.	.	.
32f/	.	.	.	.
32g/	.	.	.	.
32a-X/	3	8ddn~\L 8dddn	.	.
32b-X/	.	.	.	.
32cc/	.	.	.	.
32dd-X/JJJ)	.	.	.	.
*Xped	*	*	*	*
4r	.	8dd~\ 8ddd	.	.
.	.	8ee-X~\J 8eee-X	.	.
*clefF4	*	*	*	*
!!LO:PB:g=original
=14	=14	=14	=14	=14
*	*	*^	*	*
*	*	*	*^	*	*
*ped	*	*	*	*	*	*
4BBB/ 4BB	.	(4.eeen/	1gg	4een\	.	.
*clefG2	*	*	*	*	*	*
*Xtuplet	*	*	*	*	*	*
(12dd\L	1	.	.	4ff#X\	2	.
12b\	2	.	.	.	.	.
.	.	4ddd/	.	.	.	.
12g\J	3	.	.	.	.	.
*clefF4	*	*	*	*	*	*
12d\L	1	.	.	4ee\	1	.
12B\	.	.	.	.	.	.
.	.	8ccc/	.	.	5	.
12G\J	.	.	.	.	.	.
4D\)	.	12bb/L	.	4dd\	4	.
*Xped	*	*	*	*	*	*
.	.	12aa/	.	.	.	.
.	.	12gg/J	.	.	.	.
*	*	*	*v	*v	*	*
=15	=15	=15	=15	=15	=15
*ped	*	*	*	*	*
!	!	!LO:TX:b:i:t=calando	!	!	!
(4DD/ 4D	.	((4.ee/ 4.gg 4.bb	2cc\	1 2 3 5	.
12f#X\L	1	.	.	.	.
12c\	2	.	.	.	.
.	.	8ff#X/))) 8aa	.	2 4	.
*Xped	*	*	*	*	*
12A\J)	4	.	.	.	.
*ped	*	*	*	*	*
(4EE/ 4E	.	8r	2b\	.	.
!	!	!LO:TX:b:i:t=poco	!	!	!
.	.	(8dd#X/L 8ff#	.	2 3	.
12g\L	.	8ee/ 8gg	.	2 4	.
12e\	.	.	.	.	.
.	.	8ff#X/J 8aa	.	3 5	.
*Xped	*	*	*	*	*
12B\J)	.	.	.	.	.
*	*	*v	*v	*	*
=16	=16	=16	=16	=16
*^	*	*	*	*
*ped	*	*	*	*	*
!	!	!	!LO:TX:b:i:t=a poco	!	!
4AAA/ 4AA	4ryy	.	2b\) 2ee-X 2gg 2bb	4 5	.
6G/	12G\L	3	.	.	.
.	12E-X\	5	.	.	.
12d/	12d\J	1	.	.	.
4c/	12c\L	2	8r	.	.
.	12G\	.	.	.	.
!	!	!	!LO:TX:b:i:t=dolce	!	!
.	.	.	(>8f#X/L	2	.
.	12E-\J	.	.	.	.
4A/	12A\L	1	8g/	3	.
.	12E-\	.	.	.	.
.	.	.	8a/J	.	.
.	12AA\J	.	.	.	.
*v	*v	*	*	*	*
!!LO:LB:g=original
=17	=17	=17	=17	=17
*	*	*^	*	*
*ped	*	*	*	*	*
!	!	!	!	!	!LO:DY:rj
4AA-X/ 4E-X	2 5	1g-X) 1b-X	(4.c^\	2 5	mf <
(12c\L	1	.	.	.	.
12G-X\	2	.	.	.	.
.	.	.	4f^\	2	.
12E-X\J	3	.	.	.	[
*ped	*	*	*	*	*
4AA-X/)	.	.	.	.	.
.	.	.	4e^\	1	>
(12c\L	.	.	.	.	.
12G-\	.	.	.	.	.
.	.	.	8c^\)	1	.
12E-\J	.	.	.	.	]
=18	=18	=18	=18	=18	=18
*ped	*	*	*	*	*
4AA-X/)	.	2d-X/ 2a-X	(4B-X\	.	.
!LO:TX:t=P:problem=klamra łukowa	!	!	!	!	!
12F\L	.	.	4A-X\)	.	.
12f\	.	.	.	.	.
12F\J	.	.	.	.	.
*ped	*	*	*	*	*
4AA-/	.	8r	2ryy	.	.
.	.	(>8d-X/L	.	1	.
(12d-X\L	1	8e-X/	.	.	.
12A-X\	2	.	.	.	.
.	.	8f/J	.	.	.
12F\J	.	.	.	.	.
=19	=19	=19	=19	=19	=19
*ped	*	*	*	*	*
4AA-X/) 4E-X	.	1g-X) 1b-X	(4.c^\	.	<
(12c\L	1	.	.	.	.
12G-X\	2	.	.	.	.
.	.	.	4f^\	.	[
12E-X\J	3	.	.	.	.
*ped	*	*	*	*	*
4AA-X/)	.	.	.	.	.
.	.	.	4e-X^\	.	>
(12c\L	.	.	.	.	.
12G-\	.	.	.	.	.
.	.	.	8c^\)	.	.
12E-\J	.	.	.	.	]
!!LO:LB:g=original
=20	=20	=20	=20	=20	=20
*	*	*	*^	*	*
*ped	*	*	*	*	*	*
!	!	!	!	!	!	!LO:HP:a
4AA-X/)	.	(4.cc^:/	2d-X:/	(<4B-X:\	.	<
!LO:TX:t=P:problem=klamra łukowa	!	!	!	!	!	!
(12F\L	4	.	.	4A-X\)	1	.
12f\	.	.	.	.	.	.
.	.	4dd-X/	.	.	3	.
12F\J)	.	.	.	.	.	.
4AA-/	.	.	2ryy	2ryy	.	.
.	.	4ee-X/	.	.	.	.
!LO:TX:t=P:problem=klamra łukowa	!	!	!	!	!	!
(12f\L	1	.	.	.	.	.
12d-X\	2	.	.	.	.	.
.	.	8ff/)	.	.	.	.
12A-X\J)	4	.	.	.	.	[
*	*	*	*v	*v	*	*
=21	=21	=21	=21	=21	=21
*ped	*	*	*	*	*
4GG\ 4D 4F 4B	.	(2gg/	4r	5	p
(12f\L	.	.	8a~\	.	.
12d\	.	.	.	.	.
.	.	.	4ee~\	3	.
*Xped	*	*	*	*	*
12G\J	.	.	.	.	.
*ped	*	*	*	*	*
4GG\) 4D 4F 4B	.	2aa/)	.	5	.
.	.	.	4dd~\	2	.
(12f\L	.	.	.	.	.
12d\	.	.	.	.	.
.	.	.	8b~\	.	.
*Xped	*	*	*	*	*
12G\J	.	.	.	.	.
=22	=22	=22	=22	=22	=22
*^	*	*	*	*	*
*ped	*	*	*	*	*	*
4GG\) 4C 4E 4A	4ryy	.	(4.bb/	4a~\ 4ee	.	.
(4g/	12g\L	.	.	4ee~\	1	.
!	!	!	!	!	!	!LO:HP:t=crescendo
.	12e\	.	.	.	.	<
!	!	!	!	!	!	!LO:HP:a
.	.	.	4ccc/	.	3	<
*	*Xped	*	*	*	*	*
.	12G\J	.	.	.	.	.
*ped	*	*	*	*	*	*
4GG/) 4C 4E 4G	2ryy	.	.	4dd\	.	.
.	.	.	4ddd/	.	.	.
!LO:TX:t=P:problem=klamra łukowa	!	!	!	!	!	!
(12e\L	.	.	.	4cc\	.	.
12c\	.	.	.	.	.	.
.	.	.	8eee/	.	.	.
*Xped	*	*	*	*	*	*
12G\J)	.	.	.	.	.	[
!!LO:LB:g=original
=23	=23	=23	=23	=23	=23	=23
*^	*	*	*	*	*	*
*	*	*ped	*above	*	*	*	*
!LO:TX:a:i:t=m.g.	!	!	!	!	!	!	!
2d>\ 2f>	4cc>\	4r	4 2 1	4eee/	4ryy	5	.
*	*	*	*below	*Xtuplet	*	*	*
!	!	!	!	!LO:TX:b:i:t=poco	!	!	!
!LO:TX:t=P:problem=klamra łukowa	!	!	!	!LO:TX:a:i:t=m.d.	!	!	!
.	4ryy	(12d\L	1	6b\	4ryy	1	.
.	.	12F\	2	.	.	.	.
*	*	*Xped	*	*	*	*	*
.	.	12GG\J)	.	[12ddd/	.	4	.
*	*	*ped	*	*	*	*	*
!LO:TX:a:i:t=m.g.	!	!	!	!	!	!	!
2c>\ 2e>	4b>\	4r	.	8ddd/L]	4ryy	.	.
.	.	.	.	8ccc/	.	3	.
!LO:TX:t=P:problem=klamra łukowa	!	!	!	!LO:TX:b:i:t=a poco	!	!	!
.	4ryy	(12e\L	1	8aa/	4a\	1 5	.
.	.	12c\	2	.	.	.	.
.	.	.	.	8ee/J	.	3	.
*	*	*Xped	*	*	*	*	*
.	.	12F#X\J)	.	.	.	.	.
*v	*v	*	*	*	*	*	*
*v	*v	*	*	*	*	*
=24	=24	=24	=24	=24	=24
*ped	*	*	*	*	*
4BBB/ 4BB	.	4.gg/	4cc~\	2 5	.
!LO:TX:t=P:problem=klamra łukowa	!	!LO:TX:b:i:t=acceler.	!	!	!
(12d#X\L	1	.	4b~\	.	.
12A\	2	.	.	.	.
.	.	8ff#X/)	.	4	.
*Xped	*	*	*	*	*
12F#X\J)	.	.	.	.	.
*ped	*	*	*	*	*
!	!	!LO:TX:b:i:t=é agitato	!	!	!
4CC/ 4C	.	8ff#/L	4a~\	.	.
.	.	(8b/ 8dd#X	.	2 3	.
!LO:TX:t=P:problem=klamra łukowa	!	!	!	!	!
(12e\L	1	8cc/ 8ee	4g~\	2 4	.
12c\	2	.	.	.	.
.	.	8ddn/J 8ff#X	.	3 5	.
*Xped	*	*	*	*	*
12G\J)	.	.	.	.	.
=25	=25	=25	=25	=25	=25
*ped	*	*	*	*	*
4AAA/ 4AA	.	2cc/) 2ee-X 2gg	(4f\	.	f
*tuplet	*	*	*	*	*
!LO:TX:t=P:problem=klamra łukowa	!	!	!	!	!
12r	.	.	4e-X^^>\)	.	.
*	*above	*	*	*	*
(12c\L	1	.	.	.	.
12G\J	2	.	.	.	.
16E-X\LL	4	8r	2ryy	.	.
16C\	.	.	.	.	.
16E-\	.	(>8f#X/L 8ff#X	.	4	.
16G\JJ	.	.	.	.	.
*Xtuplet	*	*	*	*	*
12c\L	1	8g/ 8gg	.	.	.
12e-X\	.	.	.	.	.
.	.	8a/J 8aa	.	.	.
12g\J)	.	.	.	.	.
!!LO:LB:g=original
=26	=26	=26	=26	=26	=26
*ped	*	*	*	*	*
4EE-X/ 4E-X	.	2dd-X/) 2gg 2bb-X	(4a-X\	.	.
*tuplet	*	*	*	*	*
!LO:TX:t=P:problem=klamra łukowa	!	!	!	!	!
12r	.	.	4g^^>\)	.	.
(12d-X\L	1	.	.	.	.
12B-X\J	2	.	.	.	.
16G\LL	3	8r	2ryy	.	.
16E-X\	5	.	.	.	.
16G\	.	(>8an/L 8aan	.	5	.
16B-\JJ	.	.	.	.	.
*Xtuplet	*	*	*	*	*
12d-\L	1	8b-X/ 8bb-X	.	4	.
12g\	3	.	.	.	.
.	.	8cc/J 8ccc	.	5	.
12b-X\J)	2	.	.	.	.
=27	=27	=27	=27	=27	=27
*ped	*	*	*	*	*
4BBB-X/ 4BB-X	.	2ff/) 2bb-X 2ddd-X	(4cc\	.	.
*tuplet	*	*	*	*	*
!LO:TX:t=P:problem=klamra łukowa	!	!	!	!	!
12r	.	.	4b-X^^>\)	.	.
(12f\L	1	.	.	.	.
12d-X\J	2	.	.	.	.
16B-X\LL	3	8r	2ryy	.	.
16F\	.	.	.	.	.
16B-\	.	(8cc\L 8ccc	.	5	.
16d-\JJ	.	.	.	.	.
*Xtuplet	*	*	*	*	*
12f\L	1	8dd-X\ 8ddd-X	.	4	.
12b-X\	3	.	.	.	.
.	.	8ee-X\J 8eee-X	.	5	.
12dd-X\J)	2	.	.	.	.
*	*	*v	*v	*	*
=28	=28	=28	=28	=28
*ped	*	*	*	*
4DDn/ 4Dn	.	4ff\) 4gg 4bbn 4fff	.	f
(12f\L	1	4r	.	.
12B\	2	.	.	.
12G\J	3	.	.	.
16D\LL	5	8r	.	.
16G\	3	.	.	.
16B\	2	(8ee\L 8eee	.	.
16f\JJ	1	.	.	.
*clefG2	*	*	*	*
12g\L	4	8ff\ 8fff	.	.
12b\	2	.	.	.
.	.	8gg\J 8ggg	.	.
12ff\J)	.	.	.	.
*clefF4	*	*	*	*
!!LO:PB:g=original
=29	=29	=29	=29	=29
*ped	*	*	*	*
4DD-X/ 4D-X	.	4ff\) 4gg 4bb 4fff	.	f
*tuplet	*below	*	*	*
!LO:TUP:a	!	!	!	!
(12f\L	1	4r	.	.
12B\	2	.	.	.
12G\J	3	.	.	.
16D-\LL	5	8r	.	.
16G\	.	.	.	.
16B\	.	8ee\L 8eee	.	.
16f\JJ	1	.	.	.
*clefG2	*	*	*	*
!LO:TUP:a	!	!	!	!
12g\L	4	8ff\ 8fff	.	.
12b\	.	.	.	.
!	!	!	!	!LO:HP:t=crescendo_:ext=ud
.	.	8gg\J 8ggg	.	<
12ff\J)	.	.	.	.
*clefF4	*	*	*	*
=30	=30	=30	=30	=30
*ped	*	*	*	*
4CC/ 4C	.	4aa-X\ 4ddd-X 4fff 4aaa-X	.	.
(16f\LL	1	4r	.	.
16d-X\	.	.	.	.
16A-X\	.	.	.	.
16F\JJ	5	.	.	.
*ped	*	*	*	*
4BBB-X/) 4BB-X	.	8r	.	.
.	.	8gg\L 8ggg	5	.
(16f\LL	1	8aa-X\ 8aaa-X	4	.
16d-\	.	.	.	.
16A-\	.	8bb-X\J 8bbb-X	5	.
16F\JJ	5	.	.	[[
=31	=31	=31	=31	=31
*ped	*	*	*	*
4GGG/) 4GG	.	4aa-X\ 4ddd-X 4fff 4aaa-X	.	.
(16f\LL	1	4r	.	.
16d-X\	.	.	.	.
16A-X\	.	.	.	.
16F\JJ	1	.	.	.
8D-X\)	3	8r	.	.
8G\L 8g	.	8gg\L 8ggg	.	.
8A-X\ 8d-X 8f 8a-X	.	8aa-X\ 8ddd-X 8fff 8aaa-X	.	.
8B-X\J 8b-X	.	8bb-X\J 8bbb-X	.	.
!!LO:LB:g=original
=32	=32	=32	=32	=32
*^	*	*^	*	*
*	*ped	*	*	*	*	*
4c\ 4f 4an 4cc	4FFF/ 4FF	.	4ccc\ 4fff 4aaan 4cccc	4ryy	.	.
!	!	!	!LO:TX:a:i:t=poco più lento	!	!	!LO:DY:t=ff possibile
4g~/	2.F\ 2.c	.	(8dd/	2b-X\ 2dd	1 2	ff
*	*Xped	*	*	*	*	*
.	.	.	4aa/	.	.	.
4f~/	.	1	.	.	.	.
.	.	.	4gg/	.	.	.
4e~/	.	1	.	4ryy	.	.
.	.	.	8ee/)	.	.	.
=33	=33	=33	=33	=33	=33	=33
*	*ped	*	*	*	*	*
4d/	1F	.	4.ff:/ 4.ddd:	4bn:\	.	.
4d-X/ 4b-X	.	1 3	.	2.ryy	.	.
*	*Xped	*	*	*	*	*
.	.	.	4ee\ 4eee	.	.	<
4c/ 4a	.	1 4	.	.	.	.
.	.	.	4ff\ 4fff	.	.	.
4B-X/ 4g	.	.	.	.	.	.
.	.	.	8gg\ 8ggg	.	.	[
*v	*v	*	*	*	*	*
*	*	*v	*v	*	*
=34	=34	=34	=34	=34
*ped	*	*	*	*
(4F\ 4G 4Bn 4f	.	(2aa\ 2aaa	.	fff
*clefG2	*	*	*	*
8B:/L 8f: 8a:	5	.	.	.
8f:/J) 8a: 8dd:	4	.	.	.
*Xped	*	*	*	*
2r	.	2ddd\)	.	.
*clefF4	*	*	*	*
=35	=35	=35	=35	=35
*ped	*	*	*	*
(4F\ 4G 4B-X 4f	.	(2aa\ 2aaa	.	>
*clefG2	*	*	*	*
8B-X:/L 8f: 8g:	.	.	.	.
8f:/J) 8g: 8dd-X:	3	.	.	.
*Xped	*	*	*	*
2r	.	2ddd-X\)	.	]
*clefF4	*	*	*	*
!!LO:LB:g=original
=36	=36	=36	=36	=36
*ped	*	*	*	*
(4F\ 4G 4Bn 4f	.	(12aaa\L	4	p
.	.	12bbb\	.	.
.	.	12aaa\J	.	.
*clefG2	*	*	*	*
8B:/L 8f: 8a:	.	16ddd\LL	1	.
.	.	16ggg\	5	.
8f:/J) 8a: 8ddn:	.	16fff\	4	.
*Xped	*	*	*	*
.	.	16ddd-X\JJ)	2	.
2r	.	2aa\	1	.
*clefF4	*	*	*	*
=37	=37	=37	=37	=37
*ped	*	*	*	*
(4F\ 4G 4B-X 4f	.	(2aa\	5	.
*clefG2	*	*	*	*
8B-X:/L 8f: 8g:	.	.	.	.
8f:/J) 8g: 8dd-X:	.	.	.	.
*Xped	*	*	*	*
2r	.	2dd-X\)	2	.
*clefF4	*	*	*	*
=38	=38	=38	=38	=38
*ped	*	*	*	*
4F\ 4A-X 4d-X 4f	.	4a-X\ 4dd-X 4aa-X	.	pp
2A-/	3	2a-/	3	sfz >
4A-/	.	4a-/	.	]
*Xped	*	*	*	*
=39	=39	=39	=39	=39
*ped	*	*	*	*
4FF/ 4AAn 4Dn 4F	.	4an\ 4ddn 4aan	.	p
2A/	3	2a/	3	sfz >
4A/	.	4a/	.	]
*Xped	*	*	*	*
!!LO:LB:g=original
=40	=40	=40	=40	=40
*ped	*	*	*	*
4E\ 4G#X 4c#X 4e	.	4g#X\ 4cc#X 4gg#X	.	pp
2G#/	.	2g#/	.	sfz >
4G#/	.	4g#/	.	]
*Xped	*	*	*	*
=41	=41	=41	=41	=41
*ped	*	*	*	*
4E-X\ 4Gn 4c#X	.	4gn\ 4a 4cc#X 4aa	.	p
2A/	.	2a/	.	>
4A/	.	4a/	.	]
*Xped	*	*	*	*
=42	=42	=42	=42	=42
*ped	*	*	*	*
!	!	!LO:TX:a:B:t=Tempo I.	!	!
4GG\ 4D 4F 4B	.	4f\ 4dd 4aa	.	p
*Xtuplet	*	*	*	*
!	!	!LO:TX:b:i:t=dolce	!	!
(12f\L	1	(>8a/	1	.
12d\	2	.	.	.
.	.	4ee/	3	.
12G\J	5	.	.	.
12F\L	1	.	.	.
12D\	.	.	.	.
.	.	4dd/	.	.
12GG\J	.	.	.	.
*Xped	*	*	*	*
12f\L	1	.	.	.
12d\	.	.	.	.
.	.	8b/	.	.
12G\J)	.	.	.	.
=43	=43	=43	=43	=43
*^	*	*^	*	*
*ped	*	*	*	*	*	*
!	!	!	!	!LO:N:vis=4.	!	!
4GG\ 4C 4E 4A	2.a>\	.	4.bb/	4ee\	.	.
(12e\L	.	1	.	4ee\	2	.
12c\	.	2	.	.	.	.
.	.	.	4ccc/	.	.	.
12G\J	.	4	.	.	.	.
12E\L	.	1	.	4dd\	1	.
12C\	.	2	.	.	.	.
.	.	.	4ddd/	.	.	.
12GG\J	.	5	.	.	.	.
*Xped	*	*	*	*	*	*
4g/	12g\L	1	.	4cc\	.	.
.	12e\	.	.	.	.	.
.	.	.	8eee/)	.	.	.
.	12G\J)	.	.	.	.	.
!!LO:LB:g=original
=44	=44	=44	=44	=44	=44	=44
*^	*	*	*	*	*	*
*	*	*ped	*above	*	*	*	*
!LO:TX:a:i:t=m.g.	!	!	!	!	!	!	!
2d>\ 2f>	N(>4cc>\	4r	4 2 1	(4eee/	4ryy	.	>
*	*	*	*below	*	*	*	*
!	!	!LO:TX:t=P:problem=klamra łukowa	!	!LO:TX:a:i:t=m.d.	!	!	!
.	4ryy	(12d\L	1	6b\N)	4ryy	.	]
.	.	12F\	.	.	.	.	.
*	*	*Xped	*	*	*	*	*
.	.	12GG\J)	.	[>12ddd/	.	.	.
*	*	*	*above	*	*	*	*
!LO:TX:a:i:t=m.g.	!	!	!	!	!	!	!
2c>\ 2e>	NN(>4b>\	4r	4 2 1	8ddd/L]	4ryy	.	>
.	.	.	.	8ccc/	.	.	.
*	*	*ped	*	*	*	*	*
!	!	!LO:TX:t=P:problem=klamra łukowa	!	!	!	!	!
.	4ryy	(12c\L	.	8aa/	4a\NN)	.	]
.	.	12E\	.	.	.	.	.
.	.	.	.	8ee/J	.	.	.
*	*	*Xped	*	*	*	*	*
.	.	12GG\J)	.	.	.	.	.
*v	*v	*	*	*	*	*	*
*v	*v	*	*	*	*	*
=45	=45	=45	=45	=45	=45
*	*	*	*^	*	*
*ped	*below	*	*	*	*	*
4D\ 4c	1 5	(>4.ff/	(4a/	2f\	.	.
!LO:TX:t=P:problem=klamra łukowa	!	!	!	!	!	!
(12B\L	1	.	4b/)	.	.	.
12F\	.	.	.	.	.	.
.	.	8gg/)	.	.	.	.
*Xped	*	*	*	*	*	*
12GG\J)	.	.	.	.	.	.
*ped	*	*	*	*	*	*
4C\ 4B	.	(>4.ee/	(4g/	2e\	.	.
!LO:TX:t=P:problem=klamra łukowa	!	!	!	!	!	!
(12A\L	1	.	4a/)	.	.	.
12E\	.	.	.	.	.	.
.	.	8ff/)	.	.	.	.
*Xped	*	*	*	*	*	*
12GG\J)	.	.	.	.	.	.
*	*	*	*v	*v	*	*
=46	=46	=46	=46	=46	=46
*ped	*	*	*	*	*
4AA\ 4D 4F#X 4c	.	4f#X\) 4ee 4ff#X	(>4b/	.	.
4r	.	2cc/	2.ryy	.	.
*Xped	*	*	*	*	*
2r	.	.	.	.	.
.	.	4dd/	.	.	.
=47	=47	=47	=47	=47	=47
*ped	*	*	*	*	*
1GG 1D 1Fn 1B	.	1fn) 1ee	(>2a/	.	.
*Xped	*	*	*	*	*
.	.	.	2b/	.	.
*	*	*v	*v	*	*
=48	=48	=48	=48	=48
!	!	!LO:TX:b:i:t=molto rall.é morendo	!	!
4r	.	1cc)	.	pp
*ped	*	*	*	*
(>qq4CCC/	.	.	.	.
qq4CC/	1	.	.	.
qq4GG/	2	.	.	.
qq4C/	1	.	.	.
qq4E/	4	.	.	.
qq4G/	.	.	.	.
qq4c/	.	.	.	.
qq4e/	.	.	.	.
qq4g;/)	.	.	.	.
2.ryy	.	.	.	.
==	==	==	==	==
*-	*-	*-	*-	*-
!!!system-decoration: {(s1,s2)}
!!!RDF**kern: < = below
!!!RDF**kern: > = above
!!!RDF**kern: N = linked
!!!RDF**kern: NN = linked
!!!ENC: Filip Voros
!!!END: 2023-10-12
!!!EED: Marta Chmielewska
!!!EEV: 2023-10-25
